X: 14032
T: Frankie Kennedy's
R: reel
M: 4/4
K: Adorian
|:Aeed ~e2de|ge~e2 gedB|Aeed ~e2de|gedB BAAG|
Aeed ~e3f|~g2fg efge|dged gdeg|edgd BAAG:|
|:agef ~g3f|~g2fg efge|a2ef ~g3e|dged baag|
agef ~g3f|~g2fg efge|dged ~g2fg|edgd BAAG:|

